icons/14x14_products_outline.svg

<svg width="14" height="14" fill="none" xmlns="http://www.w3.org/2000/svg"><path fill-rule="evenodd" clip-rule="evenodd" d="M6 6V4H4v2h2Zm4 0V4H8v2h2Zm2-4v10H2V2h10Zm-2 6H4v2h6V8Z" fill="#000"/></svg>

<svg xmlns="http://www.w3.org/2000/svg" width="14" height="14" viewBox="0 0 14 14">
  <path fill-rule="evenodd" d="M6,6 L6,4 L4,4 L4,6 L6,6 Z M10,6 L10,4 L8,4 L8,6 L10,6 Z M12,2 L12,12 L2,12 L2,2 L12,2 Z M10,8 L4,8 L4,10 L10,10 L10,8 Z"/>
</svg>
